X:140
T: Zhi bu
N: C1636
O: China, Hebei, Changli
S: IV, 60]
R: Xiaodiao]
M: 2/4
L: 1/16
K: Bb
gbg2g4 | c2dbc2c2- | c2c2g2c2 | b4b2g2
gbg2g4 | c2fdc2b2 | gbg2c2gg | f2edc4
a2cag4 | d2g2z2b2 | gbgfe2c2 | f2edc4
g2gbg2g2 | f2d2c4 | g2b2gbgb | f2d2c2c2
z2c2 | gbg2g4 | c2fdc2b2 | f2dfa2g2 | d2g2f2d2 | c6
c2 | gbg2g4 | c2fdc2b2 | f2dfa2g2 | d2g2f2d2 | c8

